X:1
T:Woodlands
C:Colin Dewar
R:strathspey
M:C|
L:1/8
K:Bb
f>e "A"|\
"Bb"d>c d<f "Cm"e<G c>B | "F7"A<F f>e "Bb"e<d d2 |\
"D7"d>e d<A "Gm"B>c d<B | "C7"c<G c>B "F7"B<A f>e |
y4 |\
"Bb"d>c d<f "Cm"e<G c>B | "F7"A<F f>e "Bb"e<d d2 |\
"Cm"e<G "F7"f>e "Bb"d<F F2 | "F7"A<c f>A "Bb"B2 ||
y2"D7"d2 "B"|\
"Gm"g2 d>B "Cm"A<e "D7"d>^F | "Gm"G>A B>G "D7"A<d d2 |\
"Cm"e2 "F7"c>e "Bb"(3def "Eb"(3gfe | (3edc "Cm"(3BAG "D"(3^FGA "D7"(3d=e^f |
y4 |\
"Gm"g>d B>G "Cm"^F<e "D7"d>F | "Gm"G>A B>G "D7"A<d d2 |\
"Gm"g>G B<d "Cm"e>c A>e | "D"d>e "D7"d<^F "Gm"G2 :|
f>e "A"|\
"Bb"d>c d<f "Cm"e<G c>B | "F7"A<F f>e "Bb"e<d d2 |\
"D7"d>e d<A "Gm"B>c d<B | "C7"c<G c>B "F7"B<A f>e |
y4 |\
"Bb"d>c d<f "Cm"e<G c>B | "F7"A<F f>e "Bb"e<d d2 |\
"Cm"e<G "F7"f>e "Bb"d<F F2 | "F7"A<c f>A "Bb"B2 |]
